storage/app/icons/phosphoricons/bold/grid-four-bold.svg

<svg xmlns="http://www.w3.org/2000/svg" fill="currentColor" viewBox="0 0 256 256"><path d="M200 36H56a20 20 0 0 0-20 20v144a20 20 0 0 0 20 20h144a20 20 0 0 0 20-20V56a20 20 0 0 0-20-20m-4 80h-56V60h56Zm-80-56v56H60V60Zm-56 80h56v56H60Zm80 56v-56h56v56Z"/></svg>

<svg xmlns="http://www.w3.org/2000/svg" viewBox="0 0 256 256" fill="currentColor"><path d="M200,36H56A20,20,0,0,0,36,56V200a20,20,0,0,0,20,20H200a20,20,0,0,0,20-20V56A20,20,0,0,0,200,36Zm-4,80H140V60h56ZM116,60v56H60V60ZM60,140h56v56H60Zm80,56V140h56v56Z"/></svg>
